X: 1
T: Murdo MacKenzie of Torridon
C: Bobby MacLeod
B: Ceol na Fidhle, V.2
R: jig, march
Z: 2014 John Chambers <jc:trillian.mit.edu>
M: 6/8
L: 1/8
K: Am
e |\
"Am"Aee e3 | "Am"Aee "G"dBg | "G"GBd dBd | "C"e<gG "Em"BAG |\
"Am"Aee e3 | "Am"Aee "G"dBa | "C"gfe deg | "Em"edB "Am"A2 :|
B |\
"Am"Aaa a3 | "Am"Aaa "Em"gea | "Em"gfe "Bm"def | "Em"gGd "G"BAG |\
"Am"Aaa a3 | "Am"Aaa "Em"gea | "C"gfe "G"deg | "Em"edB "Am"A2 ||
B |\
"Am"Aaa a3 | "Am"Aaa "Em"gea | "Em"gfe "Bm"def | "Em"gGd "G"BAG |\
"Am"e3 A2e | "G"dBd "Am"e2a | "Em"gfe "Bm"deg | "Em"edB "Am"A2 ||
|: z |\
"Am"A3 e3 | "Am"A2e "G"dBg | "G"B3 G3 | "Em"egG BAG |\
"Am"A3 e3 | "Am"A2e "G"dBa | "C"gfe "G"deg | "Em"edB "Am"A2 :|
B |\
"Am"AaA gAa | "Am"AgA aAa | "Em"gfe "Bm"def | "Em"gGd "G"BAG |\
"Am"AaA gAa | "Am"AgA aAa | "C"gfe "G"deg | "Em"edB "Am"A2 ||
B |\
"Am"AaA gAa | "Am"AgA aAa | "Em"gfe "Bm"def | "Em"gGd "G"BAG |\
"Am"e3 A2e | "G"dBd "Am"e2a | "Em"gfe "Bm"deg | "Em"edB "Am"A2 |]
